svg/u1f428.svg

<svg viewBox="0 0 128 128" xmlns="http://www.w3.org/2000/svg">
  <path d="M62.18,22.88c5.55-0.08,11.05,1.02,16.09,3c8.7,3.42,28.4,5.23,32.31,12.32 c4.63,8.4-2.68,29.11-2.27,32.51c0.39,3.29,0.48,7.47,0.07,10.68c-0.72,5.6-2.93,11.04-6.75,15.94c-3.86,4.94-9.88,9.18-18.24,11.64 c-17.63,5.17-41.08,1.87-50.28-5.75c-3.45-2.85-6.01-5.86-7.84-9.08c-3.06-5.36-4.12-11.29-3.94-18.02 c0.29-10.77-11.4-26.77-3.35-35.82s28.2-13.84,28.2-13.84S52.55,23.03,62.18,22.88z" fill="#B0B0B0"/>
  <path d="M92.96,34.76c0.24,1.01,2.78,4.31,5.94,10.44c3.03,5.87,5.46,11.97,5.94,12.07 c1.14,0.23,12.93-3.45,13.02-3.83c0.1-0.38-4.02-20.11-4.02-20.11l-18.67-5.17L92.96,34.76z" fill="#FEBDBE"/>
  <path d="M28.18,45.87c3.16-7.43,5.7-9.53,5.99-10.77c0.29-1.24-11.01-3.5-11.01-3.5L10.8,38.97l3.06,14.75 c0,0,8.52,7.04,9.1,6.94C23.54,60.57,25.02,53.29,28.18,45.87z" fill="#FEBDBE"/>
  <linearGradient id="SVGID_1_" gradientUnits="userSpaceOnUse" x1="11.839" x2="30.5044" y1="72.8573" y2="18.649">
    <stop offset="0.1824" stop-color="#C9C7C8"/>
    <stop offset="0.2561" stop-color="#BDBCBD"/>
    <stop offset="0.411" stop-color="#A8A8AA"/>
    <stop offset="0.4982" stop-color="#9E9EA1"/>
    <stop offset="0.6479" stop-color="#828487"/>
    <stop offset="0.7993" stop-color="#606468"/>
  </linearGradient>
  <path d="M46.71,26.43c0.38-3.55-13.79-7.18-18.1-4.69c-3.15,1.82,0.19,3.45-1.15,4.6 c-0.89,0.76-9-3.06-15.03,1.53c-4.59,3.49-2.01,3.83-2.3,4.98c-0.29,1.15-3.16,2.97-4.98,5.75s-2.78,6.75-2.2,7.37 c0.71,0.77,2.79-0.77,3.06,0.77c0.29,1.63-3.23,6.98-1.63,11.87c1.53,4.69,2.87,1.15,3.93,2.59c1.05,1.44,0.1,3.54,2.59,8.04 c1.66,3,3.6,3.94,4.31,4.12c1.15,0.29,0.96-1.15,2.39-1.24c1.44-0.1,3.73,4.02,3.73,4.02s-0.1-3.45,0.53-8.81 c0.63-5.4,1.77-7.09,1.68-7.95c-0.1-0.86-9.38-6.51-6.13-16.18s12.16-7.95,13.31-7.66c1.15,0.29,2.97,0.96,5.65,0.29 C39.05,35.14,46.33,29.97,46.71,26.43z" fill="url(#SVGID_1_)"/>
  <linearGradient id="SVGID_2_" gradientUnits="userSpaceOnUse" x1="117.2001" x2="94.4197" y1="67.0827" y2="15.917">
    <stop offset="0.164" stop-color="#C9C7C8"/>
    <stop offset="0.2437" stop-color="#BDBCBD"/>
    <stop offset="0.411" stop-color="#A8A8AA"/>
    <stop offset="0.4861" stop-color="#96979A"/>
    <stop offset="0.6741" stop-color="#6F7276"/>
    <stop offset="0.7721" stop-color="#606468"/>
  </linearGradient>
  <path d="M77.83,25.95c-0.15,1.21,3.56,4.07,6.03,5.65c3.45,2.2,7.18,3.54,8.62,3.54 s11.87-5.94,17.24,3.06c5.36,9-4.6,17.72-4.88,19.06c-0.05,1.87,0.73,2.93,1.77,6.99c0.96,3.73,1.39,5.12,1.63,6.61 c0.36,0.62,4.47-2.65,6.75-6.13c1.63-2.49,1.72-5.08,2.68-5.36c0.96-0.29,1.53,2.68,2.78,2.49c1.24-0.19,3.49-6.7,3.02-11.2 c-0.67-6.32-4.45-8.43-3.3-10.44c1.15-2.01,3.73,0.38,4.6-1.24c0.86-1.63-1.24-6.22-4.41-8.43s-6.32-1.92-6.8-3.06 c-0.48-1.15,1.63-1.72,1.63-2.97c0-1.24-3.45-3.16-9.48-3.45c-5.18-0.25-9.86,2.49-10.15,0.96s1.05-1.44,0.96-2.11 c-0.1-0.67-3.68-2.25-9-0.77C83.39,20.3,78.02,24.44,77.83,25.95z" fill="url(#SVGID_2_)"/>
  <path d="M84.82,59.2c-3.6,0.18-4.24,4.24-4.02,6.97c0.23,2.95,1.01,6.46,4.74,6.39 c3.81-0.07,4.74-4.09,4.81-7.18C90.43,62.29,89.21,58.99,84.82,59.2z" fill="#2F2F2F"/>
  <path d="M43.74,58.99c-3.6,0.18-4.55,3.08-4.45,5.82c0.14,4.24,2.59,7.47,5.17,7.54 c3.81,0.11,4.6-3.45,4.67-6.54C49.2,62.72,48.12,58.77,43.74,58.99z" fill="#2F2F2F"/>
  <path d="M85.69,63.73c-0.62,1.45-2.06,2.54-2.94,2.17s-1.08-1.85-0.46-3.3s1.83-2.32,2.7-1.94 C85.87,61.03,86.31,62.28,85.69,63.73z" fill="#DFDFDF"/>
  <path d="M44.68,64.37c-0.75,1.3-2.59,2.22-3.45,1.72c-0.86-0.49-0.69-2.2,0.06-3.5s2.05-1.96,2.91-1.46 C45.05,61.62,45.43,63.07,44.68,64.37z" fill="#DFDFDF"/>
  <radialGradient id="SVGID_3_" cx="64.6425" cy="78.8829" gradientUnits="userSpaceOnUse" r="24.1911">
    <stop offset="0.784" stop-color="#FEBDBB"/>
    <stop offset="0.8205" stop-color="#F5BEBC"/>
    <stop offset="0.88" stop-color="#DCC1C0"/>
    <stop offset="0.9223" stop-color="#C7C3C3"/>
  </radialGradient>
  <path d="M67.73,94.47l-7.47-0.14l-6.18-2.08c0,0-0.12,3.9,0.07,6.25c0.22,2.59,2.73,8.05,10.92,7.9 c7.97-0.14,10.63-5.01,10.7-7.97c0.07-2.94-0.07-5.24-0.07-5.24L67.73,94.47z" fill="url(#SVGID_3_)"/>
  <path d="M64.93,92.89c-2.3,0.07-5.46-0.57-6.68-1.01c-1.22-0.43-3.02-1.72-4.17-0.36 c-1.15,1.36,0.5,3.16,3.16,4.02c2.66,0.86,4.67,1.36,7.54,1.29c3.59-0.09,6.89-0.72,8.04-1.08s3.85-1.53,3.09-3.38 c-0.86-2.08-2.37-0.72-4.31-0.22C69.67,92.67,67.37,92.81,64.93,92.89z" fill="#2F2F2F"/>
  <path d="M64.86,59.99c-7.18-0.15-9.41,5.67-9.98,9.48c-0.57,3.81-1.14,7.74-0.12,12.4 c1.01,4.6,4.64,7.22,10.03,7.13c4.74-0.07,7.48-1.74,8.91-4.52c1.58-3.09,1.51-6.18,1.22-12.86C74.63,64.95,71.54,60.13,64.86,59.99 z" fill="#303030"/>
  <path d="M66.26,85.74c0,0.69,1.03,1.09,2.19,0.75c1.22-0.36,3.12-1.47,3.7-2.77c0.31-0.69,0.07-1.72-0.68-1.4 s-1.36,1.04-2.41,1.69C68.02,84.66,66.26,85.2,66.26,85.74z" fill="#AFAFAF"/>
  <path d="M60.69,83.94c-1.6-0.97-2.12-1.76-2.84-1.51c-0.72,0.25-0.32,1.69,0.43,2.33s2.08,1.65,3.45,1.94 c1.07,0.22,1.8-0.61,1.44-1.08C62.81,85.16,61.88,84.66,60.69,83.94z" fill="#AFAFAF"/>
</svg>

<svg viewBox="0 0 128 128" xmlns="http://www.w3.org/2000/svg">
  <defs>
    <linearGradient id="SVGID_1_" gradientUnits="userSpaceOnUse" x1="11.839" x2="30.5044" y1="72.8573" y2="18.649">
      <stop offset="0.1824" stop-color="#C9C7C8"/>
      <stop offset="0.2561" stop-color="#BDBCBD"/>
      <stop offset="0.411" stop-color="#A8A8AA"/>
      <stop offset="0.4982" stop-color="#9E9EA1"/>
      <stop offset="0.6479" stop-color="#828487"/>
      <stop offset="0.7993" stop-color="#606468"/>
    </linearGradient>
    <linearGradient id="SVGID_2_" gradientUnits="userSpaceOnUse" x1="117.2001" x2="94.4197" y1="67.0827" y2="15.917">
      <stop offset="0.164" stop-color="#C9C7C8"/>
      <stop offset="0.2437" stop-color="#BDBCBD"/>
      <stop offset="0.411" stop-color="#A8A8AA"/>
      <stop offset="0.4861" stop-color="#96979A"/>
      <stop offset="0.6741" stop-color="#6F7276"/>
      <stop offset="0.7721" stop-color="#606468"/>
    </linearGradient>
    <radialGradient id="SVGID_3_" cx="64.6425" cy="78.8829" gradientUnits="userSpaceOnUse" r="24.1911">
      <stop offset="0.784" stop-color="#FEBDBB"/>
      <stop offset="0.8205" stop-color="#F5BEBC"/>
      <stop offset="0.88" stop-color="#DCC1C0"/>
      <stop offset="0.9223" stop-color="#C7C3C3"/>
    </radialGradient>
  </defs>
  <path d="M62.18,22.88 C67.73,22.8 73.23,23.9 78.27,25.88 C86.97,29.3 106.67,31.11 110.58,38.2 C115.21,46.6 107.9,67.31 108.31,70.71 C108.7,74 108.79,78.18 108.38,81.39 C107.66,86.99 105.45,92.43 101.63,97.33 C97.77,102.27 91.75,106.51 83.39,108.97 C65.76,114.14 42.31,110.84 33.11,103.22 C29.66,100.37 27.1,97.36 25.27,94.14 C22.21,88.78 21.15,82.85 21.33,76.12 C21.62,65.35 9.93,49.35 17.98,40.3 C26.03,31.25 46.18,26.46 46.18,26.46 C46.18,26.46 52.55,23.03 62.18,22.88 Z" fill="#B0B0B0"/>
  <path d="M92.96,34.76 C93.2,35.77 95.74,39.07 98.9,45.2 C101.93,51.07 104.36,57.17 104.84,57.27 C105.98,57.5 117.77,53.82 117.86,53.44 C117.96,53.06 113.84,33.33 113.84,33.33 L95.17,28.16 L92.96,34.76 Z" fill="#FEBDBE"/>
  <path d="M28.18,45.87 C31.34,38.44 33.88,36.34 34.17,35.1 C34.46,33.86 23.16,31.6 23.16,31.6 L10.8,38.97 L13.86,53.72 C13.86,53.72 22.38,60.76 22.96,60.66 C23.54,60.57 25.02,53.29 28.18,45.87 Z" fill="#FEBDBE"/>
  <path d="M46.71,26.43 C47.09,22.88 32.92,19.25 28.61,21.74 C25.46,23.56 28.8,25.19 27.46,26.34 C26.57,27.1 18.46,23.28 12.43,27.87 C7.84,31.36 10.42,31.7 10.13,32.85 C9.84,34 6.97,35.82 5.15,38.6 C3.33,41.38 2.37,45.35 2.95,45.97 C3.66,46.74 5.74,45.2 6.01,46.74 C6.3,48.37 2.78,53.72 4.38,58.61 C5.91,63.3 7.25,59.76 8.31,61.2 C9.36,62.64 8.41,64.74 10.9,69.24 C12.56,72.24 14.5,73.18 15.21,73.36 C16.36,73.65 16.17,72.21 17.6,72.12 C19.04,72.02 21.33,76.14 21.33,76.14 C21.33,76.14 21.23,72.69 21.86,67.33 C22.49,61.93 23.63,60.24 23.54,59.38 C23.44,58.52 14.16,52.87 17.41,43.2 C20.66,33.53 29.57,35.25 30.72,35.54 C31.87,35.83 33.69,36.5 36.37,35.83 C39.05,35.14 46.33,29.97 46.71,26.43 Z" fill="url(#SVGID_1_)"/>
  <path d="M77.83,25.95 C77.68,27.16 81.39,30.02 83.86,31.6 C87.31,33.8 91.04,35.14 92.48,35.14 C93.92,35.14 104.35,29.2 109.72,38.2 C115.08,47.2 105.12,55.92 104.84,57.26 C104.79,59.13 105.57,60.19 106.61,64.25 C107.57,67.98 108,69.37 108.24,70.86 C108.6,71.48 112.71,68.21 114.99,64.73 C116.62,62.24 116.71,59.65 117.67,59.37 C118.63,59.08 119.2,62.05 120.45,61.86 C121.69,61.67 123.94,55.16 123.47,50.66 C122.8,44.34 119.02,42.23 120.17,40.22 C121.32,38.21 123.9,40.6 124.77,38.98 C125.63,37.35 123.53,32.76 120.36,30.55 C117.19,28.34 114.04,28.63 113.56,27.49 C113.08,26.34 115.19,25.77 115.19,24.52 C115.19,23.28 111.74,21.36 105.71,21.07 C100.53,20.82 95.85,23.56 95.56,22.03 C95.27,20.5 96.61,20.59 96.52,19.92 C96.42,19.25 92.84,17.67 87.52,19.15 C83.39,20.3 78.02,24.44 77.83,25.95 Z" fill="url(#SVGID_2_)"/>
  <path d="M84.82,59.2 C81.22,59.38 80.58,63.44 80.8,66.17 C81.03,69.12 81.81,72.63 85.54,72.56 C89.35,72.49 90.28,68.47 90.35,65.38 C90.43,62.29 89.21,58.99 84.82,59.2 Z" fill="#2F2F2F"/>
  <path d="M43.74,58.99 C40.14,59.17 39.19,62.07 39.29,64.81 C39.43,69.05 41.88,72.28 44.46,72.35 C48.27,72.46 49.06,68.9 49.13,65.81 C49.2,62.72 48.12,58.77 43.74,58.99 Z" fill="#2F2F2F"/>
  <path d="M85.69,63.73 C85.07,65.18 83.63,66.27 82.75,65.9 C81.87,65.53 81.67,64.05 82.29,62.6 C82.91,61.15 84.12,60.28 84.99,60.66 C85.87,61.03 86.31,62.28 85.69,63.73 Z" fill="#DFDFDF"/>
  <path d="M44.68,64.37 C43.93,65.67 42.09,66.59 41.23,66.09 C40.37,65.6 40.54,63.89 41.29,62.59 C42.04,61.29 43.34,60.63 44.2,61.13 C45.05,61.62 45.43,63.07 44.68,64.37 Z" fill="#DFDFDF"/>
  <path d="M67.73,94.47 L60.26,94.33 L54.08,92.25 C54.08,92.25 53.96,96.15 54.15,98.5 C54.37,101.09 56.88,106.55 65.07,106.4 C73.04,106.26 75.7,101.39 75.77,98.43 C75.84,95.49 75.7,93.19 75.7,93.19 L67.73,94.47 Z" fill="url(#SVGID_3_)"/>
  <path d="M64.93,92.89 C62.63,92.96 59.47,92.32 58.25,91.88 C57.03,91.45 55.23,90.16 54.08,91.52 C52.93,92.88 54.58,94.68 57.24,95.54 C59.9,96.4 61.91,96.9 64.78,96.83 C68.37,96.74 71.67,96.11 72.82,95.75 C73.97,95.39 76.67,94.22 75.91,92.37 C75.05,90.29 73.54,91.65 71.6,92.15 C69.67,92.67 67.37,92.81 64.93,92.89 Z" fill="#2F2F2F"/>
  <path d="M64.86,59.99 C57.68,59.84 55.45,65.66 54.88,69.47 C54.31,73.28 53.74,77.21 54.76,81.87 C55.77,86.47 59.4,89.09 64.79,89 C69.53,88.93 72.27,87.26 73.7,84.48 C75.28,81.39 75.21,78.3 74.92,71.62 C74.63,64.95 71.54,60.13 64.86,59.99 Z" fill="#303030"/>
  <path d="M66.26,85.74 C66.26,86.43 67.29,86.83 68.45,86.49 C69.67,86.13 71.57,85.02 72.15,83.72 C72.46,83.03 72.22,82 71.47,82.32 C70.72,82.64 70.11,83.36 69.06,84.01 C68.02,84.66 66.26,85.2 66.26,85.74 Z" fill="#AFAFAF"/>
  <path d="M60.69,83.94 C59.09,82.97 58.57,82.18 57.85,82.43 C57.13,82.68 57.53,84.12 58.28,84.76 C59.03,85.4 60.36,86.41 61.73,86.7 C62.8,86.92 63.53,86.09 63.17,85.62 C62.81,85.16 61.88,84.66 60.69,83.94 Z" fill="#AFAFAF"/>
</svg>
